src/assets/duotone/Play.svg

<svg width="24" height="24" viewBox="0 0 24 24"  xmlns="http://www.w3.org/2000/svg">
<path d="M18.7 8.97989L4.14 17.7099C4.05 17.3799 4 17.0299 4 16.6699V7.32989C4 4.24989 7.33 2.32989 10 3.86989L14.04 6.19989L18.09 8.53989C18.31 8.66989 18.52 8.80989 18.7 8.97989Z" />
<path opacity="0.4" d="M18.0902 15.46L14.0402 17.8L10.0002 20.13C8.09022 21.23 5.84021 20.57 4.72021 18.96L5.14021 18.71L19.5802 10.05C20.5802 11.85 20.0902 14.31 18.0902 15.46Z" />
</svg>

<?xml version="1.0" encoding="UTF-8"?>
<svg width="24" height="24" viewBox="0 0 24 24" xmlns="http://www.w3.org/2000/svg">
 <path d="m18.7 8.9799-14.56 8.73c-0.09-0.33-0.14-0.68-0.14-1.04v-9.34c0-3.08 3.33-5 6-3.46l4.04 2.33 4.05 2.34c0.22 0.13 0.43 0.27 0.61 0.44z"/>
 <path d="m18.09 15.46-4.05 2.34-4.04 2.33c-1.91 1.1-4.16 0.44-5.28-1.17l0.42-0.25 14.44-8.66c1 1.8 0.51 4.26-1.49 5.41z" opacity=".4"/>
</svg>
